src/assets/airlines/scoot.svg

<svg xmlns="http://www.w3.org/2000/svg" height="800" width="1200" viewBox="-7.137345 -10.5 61.85699 63"><path d="M21 42c11.5633 0 21-9.3703 21-21C42 9.4367 32.6297 0 21 0 9.4367 0 0 9.3703 0 21s9.3703 21 21 21" fill="#ffe900"/><path fill="#1d1d1b" d="M40.9367 19.9367l1.9937-.5316 1.595 6.5126 3.0569-.731-.0665-1.7943-.8639.1994-1.1962-4.7848 2.1266-.5317-.5317-2.3924-2.1265.5317-.6646-2.6583-2.326 1.595.3988 1.6614-1.9937.5316.5317 2.3924"/><path d="M40.6044 17.7437c-.7974-.7975-1.9272-1.3291-3.3892-1.3291-3.1899 0-4.7184 2.5253-4.7184 4.6519 0 2.1265 1.5285 4.6519 4.7184 4.6519 3.1899 0 4.7183-2.5254 4.7183-4.652 0-.9303-.2658-1.8607-.7974-2.6582zm-1.329 3.3228c0 1.2626-.9305 2.193-2.1267 2.193-1.1297 0-2.1265-.9304-2.1265-2.193 0-1.2627.9303-2.193 2.1265-2.193 1.1962 0 2.1266.9303 2.1266 2.193m-6.845 0c0-2.1266-1.5284-4.652-4.7183-4.652-3.1898 0-4.7183 2.5254-4.7183 4.652 0 2.1265 1.5285 4.6519 4.7183 4.6519 3.1899 0 4.7184-2.5254 4.7184-4.652m-2.5918 0c0 1.2627-.9304 2.193-2.1266 2.193-1.1297 0-2.1266-.9303-2.1266-2.193 0-1.2626.9304-2.193 2.1266-2.193 1.1298 0 2.1266.9304 2.1266 2.193m-9.4367-.9968h2.6582c-.4652-2.1266-2.326-3.655-4.6519-3.655-2.5917 0-4.5854 2.06-4.5854 4.6519 0 2.5917 2.0601 4.6519 4.6519 4.6519 2.3924 0 4.1202-1.595 4.5854-3.5887H20.402c-.2658.5317-.7975 1.1962-1.8608 1.1962-1.2626 0-2.06-.9303-2.06-2.193 0-.598.1993-1.1962.598-1.595.3987-.3987.9304-.6645 1.5285-.598.9304-.133 1.462.5316 1.7943 1.1297m-9.3703-.9304h2.5918c-.1993-2.326-2.193-2.7246-3.3892-2.7246-1.7943 0-3.3893 1.1297-3.3893 2.9905 0 1.1962.9304 1.9272 2.0602 2.2595 1.6614.6645 2.326.731 2.326 1.329 0 .3988-.4653.6646-.9305.6646-.1329 0-.8639 0-.9968-.7974H6.712c.2658 2.326 2.2595 2.924 3.5886 2.924 1.9272 0 3.5886-1.1297 3.5886-3.057 0-1.8607-1.5949-2.3259-3.057-2.7246-.6645-.1994-1.329-.4652-1.329-.864 0-.2658.1993-.598.731-.598.731-.0665.7974.3987.7974.598" fill="#1d1d1b"/></svg>

<?xml version="1.0" encoding="UTF-8" standalone="no"?>
<!DOCTYPE svg PUBLIC "-//W3C//DTD SVG 1.1//EN" "http://www.w3.org/Graphics/SVG/1.1/DTD/svg11.dtd">
<svg width="100%" height="100%" viewBox="0 0 616 546" version="1.1" xmlns="http://www.w3.org/2000/svg" xmlns:xlink="http://www.w3.org/1999/xlink" xml:space="preserve" xmlns:serif="http://www.serif.com/" style="fill-rule:evenodd;clip-rule:evenodd;stroke-linejoin:round;stroke-miterlimit:2;">
    <g id="Artboard1" transform="matrix(0.513333,0,0,0.6825,0,0)">
        <rect x="0" y="0" width="1200" height="800" style="fill:none;"/>
        <g transform="matrix(1.948052,0,0,1.465201,-568.831169,-186.080586)">
            <g transform="matrix(12.698413,0,0,12.698413,297.890159,133.333333)">
                <path d="M21,42C32.563,42 42,32.63 42,21C42,9.437 32.63,0 21,0C9.437,0 0,9.37 0,21C0,32.63 9.37,42 21,42" style="fill:rgb(255,233,0);fill-rule:nonzero;"/>
            </g>
            <g transform="matrix(12.698413,0,0,12.698413,297.890159,133.333333)">
                <path d="M40.937,19.937L42.93,19.405L44.525,25.918L47.582,25.187L47.516,23.392L46.652,23.592L45.456,18.807L47.582,18.275L47.051,15.883L44.924,16.415L44.26,13.756L41.934,15.351L42.332,17.013L40.339,17.544L40.87,19.937" style="fill:rgb(29,29,27);fill-rule:nonzero;"/>
            </g>
            <g transform="matrix(12.698413,0,0,12.698413,297.890159,133.333333)">
                <path d="M40.604,17.744C39.807,16.946 38.677,16.415 37.215,16.415C34.025,16.415 32.497,18.94 32.497,21.067C32.497,23.193 34.025,25.718 37.215,25.718C40.405,25.718 41.933,23.193 41.933,21.066C41.933,20.136 41.668,19.206 41.136,18.408L40.604,17.744ZM39.275,21.067C39.275,22.329 38.345,23.26 37.149,23.26C36.019,23.26 35.022,22.329 35.022,21.067C35.022,19.804 35.953,18.873 37.149,18.873C38.345,18.873 39.275,19.804 39.275,21.067M32.43,21.067C32.43,18.94 30.902,16.415 27.712,16.415C24.522,16.415 22.994,18.94 22.994,21.067C22.994,23.193 24.522,25.718 27.712,25.718C30.902,25.718 32.43,23.193 32.43,21.066M29.839,21.066C29.839,22.329 28.908,23.259 27.712,23.259C26.582,23.259 25.585,22.329 25.585,21.066C25.585,19.804 26.516,18.873 27.712,18.873C28.842,18.873 29.839,19.804 29.839,21.066M20.402,20.07L23.06,20.07C22.595,17.943 20.734,16.415 18.408,16.415C15.817,16.415 13.823,18.475 13.823,21.067C13.823,23.658 15.883,25.718 18.475,25.718C20.867,25.718 22.595,24.123 23.06,22.13L20.402,22.13C20.136,22.661 19.605,23.326 18.541,23.326C17.279,23.326 16.481,22.396 16.481,21.133C16.481,20.535 16.681,19.937 17.079,19.538C17.478,19.139 18.01,18.873 18.608,18.94C19.538,18.807 20.07,19.472 20.402,20.07M11.032,19.139L13.623,19.139C13.424,16.813 11.431,16.415 10.234,16.415C8.44,16.415 6.845,17.544 6.845,19.405C6.845,20.601 7.775,21.332 8.905,21.665C10.567,22.329 11.231,22.396 11.231,22.994C11.231,23.392 10.766,23.658 10.301,23.658C10.168,23.658 9.437,23.658 9.304,22.861L6.712,22.861C6.978,25.187 8.971,25.785 10.301,25.785C12.228,25.785 13.889,24.655 13.889,22.728C13.889,20.867 12.294,20.402 10.832,20.003C10.168,19.804 9.503,19.538 9.503,19.139C9.503,18.873 9.702,18.541 10.234,18.541C10.965,18.475 11.032,18.94 11.032,19.139" style="fill:rgb(29,29,27);fill-rule:nonzero;"/>
            </g>
        </g>
    </g>
</svg>
